curriculum/images/exercise-icons/penguin.svg

<svg width="82" height="82" viewBox="0 0 82 82" fill="none" xmlns="http://www.w3.org/2000/svg">
<path d="M1 41.244C1 51.8527 5.21427 62.0268 12.7157 69.5283C20.2172 77.0297 30.3913 81.244 41 81.244C51.6087 81.244 61.7828 77.0297 69.2843 69.5283C76.7857 62.0268 81 51.8527 81 41.244C81 30.6354 76.7857 20.4612 69.2843 12.9597C61.7828 5.45829 51.6087 1.24402 41 1.24402C30.3913 1.24402 20.2172 5.45829 12.7157 12.9597C5.21427 20.4612 1 30.6354 1 41.244Z" fill="#B8ECFF" stroke="#B8ECFF" stroke-miterlimit="10"/>
<path d="M63.4895 11.4636C58.1945 0.883594 41.7149 -1.32141 35.9076 16.3909C33.3886 24.0773 28.4865 31.0853 25.5913 38.9615C21.6548 49.6675 19.7857 64.231 12.1933 73.0292C11.2176 74.1611 12.8499 75.4239 13.9617 74.9252C24.3334 70.27 45.4951 75.7212 45.0299 72.0703C43.1037 57.0886 44.5261 39.4738 56.2447 30.9258C59.4859 28.5629 59.0006 28.3513 58.8444 26.331C58.7285 24.8398 58.7756 23.2444 60.203 22.4198C62.979 20.8177 60.5893 19.5833 62.7221 15.7678C63.6911 14.0465 64.9523 14.3907 63.4895 11.4636Z" fill="black"/>
<path d="M65.7649 16.2229C65.6692 16.0727 65.5364 15.9498 65.3792 15.8661C65.2221 15.7823 65.046 15.7405 64.868 15.7447C64.69 15.749 64.5161 15.7991 64.3632 15.8902C64.2102 15.9813 64.0833 16.1104 63.9949 16.2649C62.9872 18.448 61.4103 20.601 63.0695 21.0645C64.2451 21.4004 67.7298 21.9277 68.3746 20.8966C68.7878 19.7764 65.9328 16.3068 65.7649 16.2229Z" fill="#FBDD50"/>
<path d="M51.9944 71.7629C50.4729 69.479 49.4283 70.9904 48.0781 71.8889C47.5273 72.3037 45.3911 73.2861 46.9848 74.2484C50.975 76.66 54.2901 74.8244 51.9944 71.7629Z" fill="#FBDD50"/>
<path d="M52.456 67.6787C52.2774 67.8678 52.1739 68.1154 52.1646 68.3752C52.1554 68.635 52.2411 68.8893 52.4057 69.0906C52.5703 69.2918 52.8026 69.4262 53.0591 69.4687C53.3156 69.5111 53.5788 69.4587 53.7994 69.3212C55.0136 69.5227 57.0222 66.9919 56.7467 66.1623C55.6501 64.5115 55.0556 65.5443 52.456 67.6787Z" fill="#FBDD50"/>
<path d="M58.7301 16.7704C58.0282 9.83121 51.0655 9.3593 50.8136 12.896C50.2309 21.093 59.2474 21.8807 58.7301 16.7704Z" fill="white"/>
<path d="M59.0258 30.2053C57.6655 25.8692 42.2842 43.9963 45.129 70.2935C45.1353 70.4783 45.1886 70.6584 45.2837 70.8169C45.3788 70.9755 45.5127 71.1072 45.6727 71.1998C45.8328 71.2923 46.0138 71.3426 46.1986 71.3459C46.3835 71.3493 46.5662 71.3055 46.7294 71.2188C58.0249 64.0714 64.5156 47.7043 59.0258 30.2053Z" fill="white"/>
<path d="M65.7197 13.3596C63.9883 0.984329 45.4229 -3.44752 36.2871 11.2117C33.0879 16.3421 34.3794 17.6705 27.1917 32.6437C20.2038 47.2005 18.9124 62.5667 10.1377 74.6279C10.0587 74.7687 10.0123 74.9255 10.0021 75.0867C9.99195 75.2479 10.0181 75.4093 10.0788 75.5589C10.1394 75.7086 10.233 75.8427 10.3525 75.9513C10.472 76.0599 10.6144 76.1402 10.7691 76.1863C14.6199 76.9353 17.7385 75.2845 23.7809 74.9655C30.6478 74.6027 36.3056 75.6372 43.4026 74.25C43.8124 75.2711 50.1352 77.6222 52.8356 76.7691C54.6829 76.1897 55.6082 74.1997 53.467 71.0844C57.6386 70.6814 59.056 66.1723 56.4563 64.0529C60.5372 57.93 63.199 48.3408 61.5935 35.7976C60.9066 30.4236 59.1618 26.1379 61.3836 23.1234C64.0674 23.1448 66.7469 22.9047 69.3841 22.4063C72.155 21.7195 65.7197 14.3924 65.7197 13.3596ZM64.7121 15.9693C65.6794 17.4807 66.6064 18.9922 67.4478 20.559C65.8557 20.7698 64.2536 20.8965 62.6481 20.9386C63.2404 19.2442 63.9289 17.5851 64.7104 15.9693H64.7121ZM52.498 74.5406C52.4141 74.6665 51.9942 74.7572 51.7406 74.7941C49.8647 74.7666 48.0148 74.3503 46.3079 73.5716C47.7893 72.7739 49.1863 71.8286 50.4778 70.7502C51.1361 71.4472 53.1261 73.8101 52.498 74.5406ZM52.4561 68.9399C53.4612 67.9296 54.3902 66.8462 55.2354 65.6987C56.3035 66.7013 55.274 69.1985 52.4561 68.9416V68.9399ZM59.9091 45.3599C59.4053 55.8912 55.0272 65.8079 46.098 71.2557C44.9896 59.2382 46.1349 46.2668 52.582 36.1805C53.9655 33.7488 56.0697 31.8066 58.6042 30.6218C59.6158 35.4669 60.0538 40.4141 59.9091 45.3616V45.3599ZM58.3506 28.4319C52.6677 30.4471 49.45 36.6809 47.3608 41.9491C43.6444 51.2914 43.0936 62.0881 44.118 72.0215C43.9812 71.9795 43.835 71.9795 43.6982 72.0215C35.3601 73.9578 26.6795 71.8989 18.3061 73.4943C16.5527 73.9278 14.7625 74.1959 12.959 74.2954C20.4574 63.0016 22.3148 49.4256 27.3596 37.4921C28.8358 33.999 30.6444 30.6285 32.2029 27.1337C35.4374 19.8772 35.9193 13.3982 41.5083 8.35339C50.1687 0.534261 61.8756 4.49924 63.6994 13.6165C63.6994 13.7358 60.4566 20.077 60.4566 21.2375C59.9477 21.0292 57.8619 23.6205 58.3506 28.4336V28.4319Z" fill="black"/>
<path d="M55.6149 15.8013C55.3459 15.8165 55.093 15.9341 54.9079 16.1299C54.7229 16.3257 54.6198 16.5849 54.6198 16.8543C54.6198 17.1237 54.7229 17.3829 54.9079 17.5787C55.093 17.7745 55.3459 17.8921 55.6149 17.9073C55.8839 17.8921 56.1368 17.7745 56.3219 17.5787C56.5069 17.3829 56.6101 17.1237 56.6101 16.8543C56.6101 16.5849 56.5069 16.3257 56.3219 16.1299C56.1368 15.9341 55.8839 15.8165 55.6149 15.8013Z" fill="black"/>
<path d="M46.4356 36.7297C44.5753 42.6771 40.587 47.7297 35.2342 50.9203L34.6028 42.6242C34.6028 42.345 34.4918 42.0772 34.2943 41.8797C34.0969 41.6822 33.829 41.5713 33.5498 41.5713C33.2705 41.5713 33.0027 41.6822 32.8052 41.8797C32.6078 42.0772 32.4968 42.345 32.4968 42.6242C32.742 45.9511 32.9536 49.3232 33.2542 52.6467C33.2636 52.8302 33.3187 53.0084 33.4146 53.1652C33.5104 53.322 33.644 53.4523 33.803 53.5442C33.9621 53.6362 34.1416 53.6869 34.3253 53.6918C34.509 53.6966 34.6909 53.6555 34.8547 53.572C38.1116 51.946 40.9997 49.668 43.3397 46.8793C45.6797 44.0907 47.4216 40.851 48.4575 37.3611C48.499 37.2284 48.5139 37.0887 48.5014 36.9502C48.4889 36.8117 48.4492 36.677 48.3847 36.5538C48.3201 36.4306 48.2319 36.3213 48.1251 36.2322C48.0183 36.1431 47.895 36.0759 47.7623 36.0344C47.6295 35.993 47.4899 35.9781 47.3513 35.9906C47.2128 36.0031 47.0781 36.0427 46.9549 36.1073C46.8317 36.1718 46.7225 36.26 46.6333 36.3668C46.5442 36.4736 46.477 36.5969 46.4356 36.7297Z" fill="black"/>
<path d="M54.9835 9.65327C52.278 8.58015 48.2845 9.77418 49.0301 14.9013C49.7338 19.7412 54.8894 23.1302 58.1407 21.3601C62.5507 18.9654 60.2466 11.7407 54.9835 9.65327ZM57.1667 19.4221C55.3613 20.4953 51.8162 18.26 51.1209 14.8056C50.513 11.7726 52.2041 10.6726 54.4209 11.6484C57.343 12.9297 60.0552 17.7075 57.1717 19.4221H57.1667Z" fill="black"/>
</svg>

<svg xmlns="http://www.w3.org/2000/svg" width="82" height="82" fill="none" viewBox="0 0 82 82"><path fill="#b8ecff" stroke="#b8ecff" stroke-miterlimit="10" d="M1 41.244a40 40 0 1 0 80 0 40 40 0 0 0-80 0Z"/><path fill="#000" d="M63.49 11.464C58.194.884 41.715-1.321 35.908 16.39c-2.52 7.686-7.422 14.694-10.317 22.57-3.936 10.706-5.805 25.27-13.398 34.068-.975 1.132.657 2.395 1.769 1.896 10.371-4.655 31.533.796 31.068-2.855-1.926-14.981-.504-32.596 11.215-41.144 3.24-2.363 2.756-2.575 2.6-4.595-.117-1.491-.07-3.087 1.358-3.911 2.776-1.602.386-2.837 2.52-6.652.968-1.722 2.23-1.377.767-4.304"/><path fill="#fbdd50" d="M65.765 16.223a1.033 1.033 0 0 0-1.77.042c-1.008 2.183-2.585 4.336-.925 4.8 1.175.335 4.66.863 5.305-.168.413-1.12-2.442-4.59-2.61-4.674M51.994 71.763c-1.521-2.284-2.566-.773-3.916.126-.55.415-2.687 1.397-1.093 2.36 3.99 2.411 7.305.575 5.01-2.486M52.456 67.679a1.07 1.07 0 0 0 1.343 1.642c1.215.202 3.223-2.33 2.948-3.159-1.097-1.65-1.691-.618-4.291 1.517"/><path fill="#fff" d="M58.73 16.77c-.702-6.939-7.664-7.41-7.916-3.874-.583 8.197 8.433 8.985 7.916 3.874M59.026 30.205c-1.36-4.336-16.742 13.791-13.897 40.088a1.09 1.09 0 0 0 1.6.926c11.296-7.148 17.787-23.515 12.297-41.014"/><path fill="#000" d="M65.72 13.36C63.988.984 45.423-3.448 36.287 11.212c-3.2 5.13-1.908 6.459-9.095 21.432-6.988 14.557-8.28 29.923-17.054 41.984a1.077 1.077 0 0 0 .631 1.558c3.85.75 6.97-.902 13.012-1.22 6.867-.363 12.525.671 19.622-.716.41 1.021 6.732 3.372 9.433 2.52 1.847-.58 2.772-2.57.631-5.686 4.172-.403 5.589-4.912 2.99-7.031 4.08-6.123 6.742-15.712 5.136-28.255-.686-5.374-2.431-9.66-.21-12.675a41.3 41.3 0 0 0 8.001-.717c2.771-.686-3.664-8.014-3.664-9.046m-1.008 2.61c.967 1.51 1.894 3.022 2.736 4.589q-2.39.315-4.8.38a47 47 0 0 1 2.062-4.97zM52.498 74.54c-.084.126-.504.217-.757.254a13.6 13.6 0 0 1-5.433-1.222 25 25 0 0 0 4.17-2.822c.658.697 2.648 3.06 2.02 3.79m-.042-5.6a29 29 0 0 0 2.78-3.241c1.068 1.002.038 3.5-2.78 3.243zm7.453-23.58c-.504 10.531-4.882 20.448-13.811 25.896-1.108-12.018.037-24.99 6.484-35.075a13.5 13.5 0 0 1 6.022-5.56 63 63 0 0 1 1.305 14.74zm-1.558-16.928c-5.683 2.015-8.901 8.249-10.99 13.517-3.717 9.342-4.267 20.14-3.243 30.073a.7.7 0 0 0-.42 0c-8.338 1.936-17.018-.123-25.392 1.472a29 29 0 0 1-5.347.801c7.498-11.293 9.356-24.87 14.4-36.803 1.477-3.493 3.285-6.863 4.844-10.358 3.234-7.257 3.716-13.736 9.305-18.78 8.66-7.82 20.368-3.855 22.191 5.263 0 .119-3.242 6.46-3.242 7.62-.51-.208-2.595 2.384-2.106 7.197z"/><path fill="#000" d="M55.615 15.801a1.055 1.055 0 0 0 0 2.106 1.055 1.055 0 0 0 0-2.106M46.436 36.73a25.32 25.32 0 0 1-11.202 14.19l-.631-8.296a1.053 1.053 0 0 0-2.106 0c.245 3.327.457 6.7.757 10.023a1.102 1.102 0 0 0 1.6.925 26.57 26.57 0 0 0 13.604-16.21 1.058 1.058 0 1 0-2.022-.632"/><path fill="#000" d="M54.984 9.653c-2.706-1.073-6.7.121-5.954 5.248.704 4.84 5.86 8.23 9.11 6.46 4.41-2.396 2.107-9.62-3.157-11.708m2.183 9.77c-1.806 1.072-5.35-1.163-6.046-4.617-.608-3.033 1.083-4.133 3.3-3.158 2.922 1.282 5.634 6.06 2.75 7.774z"/></svg>
